X: 73
T: Dong gui gu niang
%%abc-version 2.0
%%abcx-abcm2ps-target-version 5.9.1 (29 Sep 2008)
%%abc-creator hum2abc beta
%%abcx-conversion-date 2013/10/02 07:44:27
%%abc-edited-by Helmut Schaffrath
%%humdrum-veritas 833968720
%%humdrum-veritas-data 2230794956
%%continueall 1
%%barnumbers 0
L: 1/16
M: 2/4
K: F
F2 F G c A2 G [I:setbarnb 1]| 
F2 F G c A2 G | 
F2 G2 c3 d | 
F G F DC4 | 
D F D C A,2 C2 | 
D2 F G A2 C2 | 
D2 F G2< A2 G | 
F2 F G2< c2 f | 
d2 F2D4- | 
D4z4 |]  



